X: 5
T: Greenwood Tree, The
I: Greenwood Tree, The	W-3	D	waltz
C: W-3
M: 3/4
Z: Transcribed to abc by Mary Lou Knack
R: waltz
K: D
A2| "D"f2 f2 e2| d4 cd| "G"B4 cB| "D"A2 F2 FG|    A2 AB AF| A2 d2 e2|1 f3 e d2| "A"e4:|2 "D"f3 "A7"g ec| "D"d4|]
F2| "G"B4 Bc| d2 d2 F2| d4 cB| "D"A2 F2 FG|    A2 AB AF| A2 d2 e2| f3 e d2| "A7"e4 A2|
    "D"f2 f2 e2| d4 cd| "G"B4 cB| "D"A2 F2 FG|    A2 AB AF| A2 d2 e2| "D"f3 "A7"g ec| "D"d4|]
% %text 9/1/98 For use only by Roaring Jelly members

#include "RightHeader.h"
% ---------- page 3 ----------
